icons/1_Primary/Pushover.svg

<svg xmlns="http://www.w3.org/2000/svg" width="1024" height="1024" fill="none">
   <g clip-path="url(#a)">
      <path fill="#9ABEFF" d="M512 1024c282.77 0 512-229.23 512-512S794.77 0 512 0 0 229.23 0 512s229.23 512 512 512Z"/>
      <path fill="#fff" d="m495.6 319.4 104-13.7-101.3 228.6c17.8-1.4 35.2-7.4 52.3-18.1 17.1-10.7 32.9-24.2 47.2-40.4 14.4-16.2 26.8-34.2 37.3-54.1 10.5-19.8 18-39.4 22.6-58.5 2.7-11.9 4-23.3 3.8-34.2-.2-10.9-3.1-20.5-8.6-28.7s-13.8-14.8-25-19.8-26.3-7.5-45.5-7.5c-22.4 0-44.4 3.6-66 10.9-21.7 7.3-41.7 17.9-60.2 31.8-18.5 13.9-34.5 31.2-48.2 52-13.7 20.8-23.5 44.4-29.4 70.8-2.3 8.7-3.6 15.6-4.1 20.9-.5 5.3-.6 9.6-.3 13 .2 3.4.7 6.1 1.4 7.9.7 1.8 1.3 3.6 1.7 5.5-23.3 0-40.3-4.7-51-14-10.7-9.3-13.3-25.7-7.9-48.9 5.5-24.2 17.9-47.2 37.3-69.1 19.4-21.9 42.4-41.2 69.1-57.8 26.7-16.6 55.9-29.9 87.6-39.7 31.7-9.8 62.6-14.7 92.7-14.7 26.5 0 48.7 3.8 66.7 11.3 18 7.5 32.1 17.5 42.1 29.8s16.3 26.7 18.8 43.1c2.5 16.4 1.7 33.5-2.4 51.3-5 21.4-14.5 43-28.4 64.7-13.9 21.7-31.4 41.3-52.3 58.8-21 17.6-45 31.8-72.2 42.8-27.1 10.9-56 16.4-86.6 16.4h-3.4l-86.9 195H302l193.6-435.4Z"/>
   </g>
   <defs>
      <clipPath id="a">
         <path fill="#fff" d="M0 0h1024v1024H0z"/>
      </clipPath>
   </defs>
</svg>

<svg width="1024" height="1024" viewBox="0 0 1024 1024" fill="none" xmlns="http://www.w3.org/2000/svg">
<g clip-path="url(#clip0_2_3240)">
<path d="M512 1024C794.77 1024 1024 794.77 1024 512C1024 229.23 794.77 0 512 0C229.23 0 0 229.23 0 512C0 794.77 229.23 1024 512 1024Z" fill="#9ABEFF"/>
<path d="M495.6 319.4L599.6 305.7L498.3 534.3C516.1 532.9 533.5 526.9 550.6 516.2C567.7 505.5 583.5 492 597.8 475.8C612.2 459.6 624.6 441.6 635.1 421.7C645.6 401.9 653.1 382.3 657.7 363.2C660.4 351.3 661.7 339.9 661.5 329C661.3 318.1 658.4 308.5 652.9 300.3C647.4 292.1 639.1 285.5 627.9 280.5C616.7 275.5 601.6 273 582.4 273C560 273 538 276.6 516.4 283.9C494.7 291.2 474.7 301.8 456.2 315.7C437.7 329.6 421.7 346.9 408 367.7C394.3 388.5 384.5 412.1 378.6 438.5C376.3 447.2 375 454.1 374.5 459.4C374 464.7 373.9 469 374.2 472.4C374.4 475.8 374.9 478.5 375.6 480.3C376.3 482.1 376.9 483.9 377.3 485.8C354 485.8 337 481.1 326.3 471.8C315.6 462.5 313 446.1 318.4 422.9C323.9 398.7 336.3 375.7 355.7 353.8C375.1 331.9 398.1 312.6 424.8 296C451.5 279.4 480.7 266.1 512.4 256.3C544.1 246.5 575 241.6 605.1 241.6C631.6 241.6 653.8 245.4 671.8 252.9C689.8 260.4 703.9 270.4 713.9 282.7C723.9 295 730.2 309.4 732.7 325.8C735.2 342.2 734.4 359.3 730.3 377.1C725.3 398.5 715.8 420.1 701.9 441.8C688 463.5 670.5 483.1 649.6 500.6C628.6 518.2 604.6 532.4 577.4 543.4C550.3 554.3 521.4 559.8 490.8 559.8H487.4L400.5 754.8H302L495.6 319.4Z" fill="white"/>
</g>
<defs>
<clipPath id="clip0_2_3240">
<rect width="1024" height="1024" fill="white"/>
</clipPath>
</defs>
</svg>
